X: 1
T: Johnny In The Fog
M: 4/4
L: 1/8
R: reel
K: Emix
B2Ad BEFA|~B3G A2FE|FBBA B2dA|FAdB ADFA:|
|:GE~E2 B,EFA|GE~E2 ADFA|GE~E2 B,EGE|1 FAdB ADFA:|2 FAdB ABc^d||
|:e2ge fege|~e2ge B3c|1 d2fd edfd|~d2fd BcdB:|2 ~d2fd edBc|~d3B ADFA||
